fs/keyboard_shift_uppercase_16_regular.svg

<svg viewBox="0 0 16 16" fill="none" xmlns="http://www.w3.org/2000/svg" height="1em" width="1em">
  <path d="M7.60596 2.19139C7.80716 1.93756 8.1936 1.93758 8.39478 2.19142L12.9931 7.99336H10.5129C10.2354 7.99336 10.0104 8.21744 10.0104 8.49387L10.0104 10.999L5.99036 10.999L5.9904 8.49388C5.9904 8.36113 5.93746 8.23382 5.84322 8.13996C5.74898 8.04609 5.62117 7.99336 5.4879 7.99336L3.00688 7.99336L7.60596 2.19139ZM9.18362 1.57117C8.58008 0.809649 7.42077 0.809604 6.81717 1.57108L2.21809 7.37305C1.69775 8.02949 2.16717 8.99439 3.00688 8.99439H4.98539L4.98535 10.999C4.98535 11.5518 5.43531 12 5.99036 12H10.0104C10.5655 12 11.0154 11.5518 11.0154 10.999L11.0154 8.99439H12.9931C13.8328 8.99439 14.3022 8.02956 13.782 7.37311L9.18362 1.57117ZM5.5 13C5.22386 13 5 13.2239 5 13.5C5 13.7761 5.22386 14 5.5 14H10.5C10.7761 14 11 13.7761 11 13.5C11 13.2239 10.7761 13 10.5 13H5.5Z" fill="#212121"/>
</svg>

<svg viewBox="0 0 16 16" fill="none" xmlns="http://www.w3.org/2000/svg" height="1em" width="1em">
  <path d="M7.606 2.191a.504.504 0 0 1 .789 0l4.598 5.802h-2.48a.502.502 0 0 0-.503.5V11H5.99V8.494a.5.5 0 0 0-.502-.5H3.007L7.606 2.19Zm1.578-.62a1.511 1.511 0 0 0-2.367 0L2.218 7.373c-.52.656-.05 1.621.789 1.621h1.978V11c0 .553.45 1.001 1.005 1.001h4.02c.556 0 1.005-.448 1.005-1.001V8.994h1.978c.84 0 1.31-.964.789-1.62L9.184 1.57ZM5.5 13a.5.5 0 0 0 0 1h5a.5.5 0 0 0 0-1h-5Z" fill="#212121"/>
</svg>
